;START_OF_HEADER
;HEADER_VERSION:0.1
;FLAVOR:Griffin
;GENERATOR.NAME:Cura_SteamEngine
;GENERATOR.VERSION:2.6.2
;GENERATOR.BUILD_DATE:2017-07-06
;TARGET_MACHINE.NAME:Ultimaker 3
;EXTRUDER_TRAIN.0.INITIAL_TEMPERATURE:235
;EXTRUDER_TRAIN.0.MATERIAL.VOLUME_USED:9042
;EXTRUDER_TRAIN.0.MATERIAL.GUID:60636bb4-518f-42e7-8237-fe77b194ebe0
;EXTRUDER_TRAIN.0.NOZZLE.DIAMETER:0.4
;BUILD_PLATE.INITIAL_TEMPERATURE:80
;PRINT.TIME:9076
;PRINT.SIZE.MIN.X:9
;PRINT.SIZE.MIN.Y:6
;PRINT.SIZE.MIN.Z:0.27
;PRINT.SIZE.MAX.X:198.325
;PRINT.SIZE.MAX.Y:124.325
;PRINT.SIZE.MAX.Z:3.97
;END_OF_HEADER
;Generated with Cura_SteamEngine 2.6.2

T0
G92 E0

M109 S235
G0 F15000 X9 Y6 Z2
G280
G1 F1500 E-6.5
;LAYER_COUNT:38
;LAYER:0
M107
M204 S625
M205 X6
G0 F5454.5 X193.33 Y124.075 Z0.27
M204 S500
M205 X5
;TYPE:SKIRT
G1 F1500 E0
G1 F1200 X192.609 Y124.234 E0.01094
G1 X191.874 Y124.315 E0.02189
G1 X191.5 Y124.325 E0.02743
G1 X170.48 Y124.325 E0.33881
G1 X169.742 Y124.285 E0.34976
G1 X169.014 Y124.166 E0.36068
G1 X168.188 Y123.929 E0.37341
G1 X160.886 Y121.326 E0.48825
G1 X153.762 Y119.84 E0.59605
G1 X146.265 Y119.325 E0.70737
G1 X86.735 Y119.325 E1.5892
G1 X79.238 Y119.84 E1.70052
G1 X72.114 Y121.326 E1.80832
G1 X64.812 Y123.929 E1.92316
G1 X64.104 Y124.139 E1.93409
G1 X63.377 Y124.271 E1.94504
G1 X62.52 Y124.325 E1.95776
G1 X41.5 Y124.325 E2.26914
G1 X40.762 Y124.285 E2.28008
G1 X40.034 Y124.166 E2.29101
G1 X39.322 Y123.968 E2.30196
G1 X38.636 Y123.695 E2.3129
G1 X37.983 Y123.349 E2.32384
G1 X37.371 Y122.935 E2.33479
G1 X36.808 Y122.457 E2.34573
G1 X36.3 Y121.921 E2.35667
G1 X35.853 Y121.333 E2.36761
G1 X35.472 Y120.7 E2.37855
G1 X35.161 Y120.03 E2.3895
G1 X34.925 Y119.33 E2.40044
G1 X34.766 Y118.609 E2.41138
G1 X34.685 Y117.874 E2.42233
G1 X34.675 Y117.5 E2.42787
G1 X34.675 Y97.5 E2.72414
G1 X34.715 Y96.762 E2.73509
G1 X34.834 Y96.034 E2.74601
G1 X35.032 Y95.322 E2.75696
G1 X35.305 Y94.636 E2.7679
G1 X35.651 Y93.983 E2.77884
G1 X36.065 Y93.371 E2.78979
G1 X36.543 Y92.808 E2.80073
G1 X37.079 Y92.3 E2.81167
G1 X37.667 Y91.853 E2.82261
G1 X38.3 Y91.472 E2.83356
G1 X38.97 Y91.161 E2.8445
G1 X39.67 Y90.925 E2.85544
G1 X40.391 Y90.766 E2.86638
G1 X41.126 Y90.685 E2.87733
G1 X41.5 Y90.675 E2.88287
G1 X62.52 Y90.675 E3.19425
G1 X63.258 Y90.715 E3.2052
G1 X63.986 Y90.834 E3.21612
G1 X64.812 Y91.071 E3.22885
G1 X72.114 Y93.674 E3.34369
G1 X79.238 Y95.16 E3.45149
G1 X86.735 Y95.675 E3.56281
G1 X146.265 Y95.675 E4.44464
G1 X153.762 Y95.16 E4.55596
G1 X160.886 Y93.674 E4.66376
G1 X168.188 Y91.071 E4.7786
G1 X168.896 Y90.861 E4.78954
G1 X169.623 Y90.729 E4.80048
G1 X170.48 Y90.675 E4.8132
G1 X191.5 Y90.675 E5.12458
G1 X192.238 Y90.715 E5.13552
G1 X192.966 Y90.834 E5.14645
G1 X193.678 Y91.032 E5.1574
G1 X194.364 Y91.305 E5.16834
G1 X195.017 Y91.651 E5.17928
G1 X195.629 Y92.065 E5.19023
G1 X196.192 Y92.543 E5.20117
G1 X196.7 Y93.079 E5.21211
G1 X197.147 Y93.667 E5.22305
G1 X197.528 Y94.3 E5.23399
G1 X197.839 Y94.97 E5.24494
G1 X198.075 Y95.67 E5.25588
G1 X198.234 Y96.391 E5.26682
G1 X198.315 Y97.126 E5.27777
G1 X198.325 Y97.5 E5.28331
G1 X198.325 Y117.5 E5.57958
G1 X198.285 Y118.238 E5.59053
G1 X198.166 Y118.966 E5.60145
G1 X197.968 Y119.678 E5.6124
G1 X197.695 Y120.364 E5.62334
G1 X197.349 Y121.017 E5.63428
G1 X196.935 Y121.629 E5.64523
G1 X196.457 Y122.192 E5.65617
G1 X195.921 Y122.7 E5.66711
G1 X195.333 Y123.147 E5.67805
G1 X194.7 Y123.528 E5.689
G1 X194.03 Y123.839 E5.69994
G1 X193.33 Y124.075 E5.71088
M204 S625
M205 X6
G0 F5454.5 X193.019 Y123.794
M204 S500
M205 X5
G1 F1200 X192.311 Y123.924 E5.72154
G1 X191.5 Y123.975 E5.73358
G1 X170.48 Y123.975 E6.04496
G1 X169.762 Y123.935 E6.05561
G1 X169.052 Y123.816 E6.06627
G1 X168.306 Y123.599 E6.07778
G1 X160.988 Y120.99 E6.19287
G1 X153.808 Y119.492 E6.30152
G1 X146.274 Y118.975 E6.41338
G1 X86.726 Y118.975 E7.29549
G1 X79.192 Y119.492 E7.40735
G1 X72.012 Y120.99 E7.516
G1 X64.694 Y123.599 E7.63109
G1 X64.004 Y123.803 E7.64175
G1 X63.296 Y123.928 E7.6524
G1 X62.52 Y123.975 E7.66392
G1 X41.5 Y123.975 E7.97529
G1 X40.782 Y123.935 E7.98594
G1 X40.072 Y123.816 E7.99661
G1 X39.38 Y123.618 E8.00727
G1 X38.715 Y123.345 E8.01792
G1 X38.083 Y123 E8.02859
G1 X37.494 Y122.587 E8.03924
G1 X36.955 Y122.111 E8.04989
G1 X36.471 Y121.579 E8.06055
G1 X36.05 Y120.996 E8.0712
G1 X35.696 Y120.369 E8.08187
G1 X35.413 Y119.708 E8.09252
G1 X35.206 Y119.019 E8.10317
G1 X35.076 Y118.311 E8.11384
G1 X35.025 Y117.5 E8.12587
G1 X35.025 Y97.5 E8.42214
G1 X35.065 Y96.782 E8.43279
G1 X35.184 Y96.072 E8.44346
G1 X35.382 Y95.38 E8.45412
G1 X35.655 Y94.715 E8.46477
G1 X36 Y94.083 E8.47543
G1 X36.413 Y93.494 E8.48609
G1 X36.889 Y92.955 E8.49674
G1 X37.421 Y92.471 E8.5074
G1 X38.004 Y92.05 E8.51805
G1 X38.631 Y91.696 E8.52872
G1 X39.292 Y91.413 E8.53937
G1 X39.981 Y91.206 E8.55002
G1 X40.689 Y91.076 E8.56069
G1 X41.5 Y91.025 E8.57272
G1 X62.52 Y91.025 E8.8841
G1 X63.238 Y91.065 E8.89475
G1 X63.948 Y91.184 E8.90542
G1 X64.694 Y91.401 E8.91693
G1 X72.012 Y94.01 E9.03201
G1 X79.192 Y95.508 E9.14066
G1 X86.726 Y96.025 E9.25253
G1 X146.274 Y96.025 E10.13463
G1 X153.808 Y95.508 E10.2465
G1 X160.988 Y94.01 E10.35515
G1 X168.306 Y91.401 E10.47023
G1 X168.996 Y91.197 E10.48089
G1 X169.704 Y91.072 E10.49154
G1 X170.48 Y91.025 E10.50306
G1 X191.5 Y91.025 E10.81444
G1 X192.218 Y91.065 E10.82509
G1 X192.928 Y91.184 E10.83575
G1 X193.62 Y91.382 E10.84641
G1 X194.285 Y91.655 E10.85706
G1 X194.917 Y92 E10.86773
G1 X195.506 Y92.413 E10.87839
G1 X196.045 Y92.889 E10.88904
G1 X196.529 Y93.421 E10.89969
G1 X196.95 Y94.004 E10.91034
G1 X197.304 Y94.631 E10.92101
G1 X197.587 Y95.292 E10.93166
G1 X197.794 Y95.981 E10.94232
G1 X197.924 Y96.689 E10.95298
G1 X197.975 Y97.5 E10.96502
G1 X197.975 Y117.5 E11.26128
G1 X197.935 Y118.218 E11.27194
G1 X197.816 Y118.928 E11.2826
G1 X197.618 Y119.62 E11.29326
G1 X197.345 Y120.285 E11.30391
G1 X197 Y120.917 E11.31458
G1 X196.587 Y121.506 E11.32523
G1 X196.111 Y122.045 E11.33589
G1 X195.579 Y122.529 E11.34654
G1 X194.996 Y122.95 E11.35719
G1 X194.369 Y123.304 E11.36786
G1 X193.708 Y123.587 E11.37851
G1 X193.019 Y123.794 E11.38917
M204 S625
M205 X6
G0 F5454.5 X192.712 Y123.504
M204 S500
M205 X5
G1 F1200 X192.019 Y123.603 E11.39954
G1 X191.5 Y123.625 E11.40723
G1 X170.48 Y123.625 E11.71861
G1 X169.781 Y123.585 E11.72898
G1 X169.092 Y123.466 E11.73934
G1 X168.423 Y123.269 E11.74967
G1 X161.082 Y120.652 E11.86512
G1 X153.859 Y119.145 E11.97442
G1 X146.284 Y118.625 E12.08689
G1 X86.716 Y118.625 E12.96929
G1 X79.141 Y119.145 E13.08177
G1 X71.918 Y120.652 E13.19107
G1 X64.577 Y123.269 E13.30651
G1 X63.905 Y123.466 E13.31689
G1 X63.216 Y123.585 E13.32725
G1 X62.52 Y123.625 E13.33757
G1 X41.5 Y123.625 E13.64895
G1 X40.801 Y123.585 E13.65932
G1 X40.112 Y123.466 E13.66968
G1 X39.441 Y123.268 E13.68004
G1 X38.796 Y122.996 E13.69041
G1 X38.187 Y122.652 E13.70077
G1 X37.621 Y122.24 E13.71114
G1 X37.106 Y121.767 E13.7215
G1 X36.648 Y121.238 E13.73186
G1 X36.253 Y120.66 E13.74224
G1 X35.927 Y120.041 E13.7526
G1 X35.673 Y119.389 E13.76296
G1 X35.496 Y118.712 E13.77333
G1 X35.397 Y118.019 E13.7837
G1 X35.375 Y117.5 E13.79139
G1 X35.375 Y97.5 E14.08766
G1 X35.415 Y96.801 E14.09803
G1 X35.534 Y96.112 E14.10839
G1 X35.732 Y95.441 E14.11875
G1 X36.004 Y94.796 E14.12912
G1 X36.348 Y94.187 E14.13948
G1 X36.76 Y93.621 E14.14985
G1 X37.233 Y93.106 E14.16021
G1 X37.762 Y92.648 E14.17058
G1 X38.34 Y92.253 E14.18095
G1 X38.959 Y91.927 E14.19131
G1 X39.611 Y91.673 E14.20168
G1 X40.288 Y91.496 E14.21204
G1 X40.981 Y91.397 E14.22241
G1 X41.5 Y91.375 E14.23011
G1 X62.52 Y91.375 E14.54148
G1 X63.219 Y91.415 E14.55185
G1 X63.908 Y91.534 E14.56221
G1 X64.577 Y91.731 E14.57254
G1 X71.918 Y94.348 E14.68799
G1 X79.141 Y95.855 E14.79729
G1 X86.716 Y96.375 E14.90977
G1 X146.284 Y96.375 E15.79217
G1 X153.859 Y95.855 E15.90464
G1 X161.082 Y94.348 E16.01394
G1 X168.423 Y91.731 E16.12939
G1 X169.095 Y91.534 E16.13976
G1 X169.784 Y91.415 E16.15012
G1 X170.48 Y91.375 E16.16045
G1 X191.5 Y91.375 E16.47182
G1 X192.199 Y91.415 E16.48219
G1 X192.888 Y91.534 E16.49255
G1 X193.559 Y91.732 E16.50292
G1 X194.204 Y92.004 E16.51328
G1 X194.813 Y92.348 E16.52365
G1 X195.379 Y92.76 E16.53402
G1 X195.894 Y93.233 E16.54437
G1 X196.352 Y93.762 E16.55474
G1 X196.747 Y94.34 E16.56511
G1 X197.073 Y94.959 E16.57547
G1 X197.327 Y95.611 E16.58584
G1 X197.504 Y96.288 E16.5962
G1 X197.603 Y96.981 E16.60657
G1 X197.625 Y97.5 E16.61427
G1 X197.625 Y117.5 E16.91054
G1 X197.585 Y118.199 E16.92091
G1 X197.466 Y118.888 E16.93126
G1 X197.268 Y119.559 E16.94163
G1 X196.996 Y120.204 E16.952
G1 X196.652 Y120.813 E16.96236
G1 X196.24 Y121.379 E16.97273
G1 X195.767 Y121.894 E16.98309
G1 X195.238 Y122.352 E16.99345
G1 X194.66 Y122.747 E17.00382
G1 X194.041 Y123.073 E17.01419
G1 X193.389 Y123.327 E17.02455
G1 X192.712 Y123.504 E17.03492
M204 S625
M205 X6
G0 F5454.5 X193.073 Y123.057
M204 S500
M205 X5
G1 F1200 X192.41 Y123.203 E17.04497
G1 X191.5 Y123.275 E17.0585
G1 X170.48 Y123.275 E17.36987
G1 X169.802 Y123.235 E17.37993
G1 X169.133 Y123.116 E17.39
G1 X168.541 Y122.94 E17.39915
G1 X161.17 Y120.312 E17.51507
G1 X153.905 Y118.797 E17.625
G1 X146.308 Y118.275 E17.7378
G1 X86.692 Y118.275 E18.62091
G1 X79.095 Y118.797 E18.73372
G1 X71.83 Y120.312 E18.84365
G1 X64.459 Y122.94 E18.95957
G1 X63.807 Y123.13 E18.96963
G1 X63.137 Y123.242 E18.97969
G1 X62.52 Y123.275 E18.98885
G1 X41.5 Y123.275 E19.30022
G1 X40.822 Y123.235 E19.31028
G1 X40.153 Y123.116 E19.32035
G1 X39.503 Y122.919 E19.33041
G1 X38.88 Y122.647 E19.34048
G1 X38.294 Y122.303 E19.35055
G1 X37.752 Y121.893 E19.36061
G1 X37.262 Y121.423 E19.37067
G1 X36.831 Y120.898 E19.38073
G1 X36.464 Y120.326 E19.3908
G1 X36.167 Y119.715 E19.40086
G1 X35.943 Y119.073 E19.41094
G1 X35.797 Y118.41 E19.42099
G1 X35.725 Y117.5 E19.43452
G1 X35.725 Y97.5 E19.73078
G1 X35.765 Y96.822 E19.74084
G1 X35.884 Y96.153 E19.75091
G1 X36.081 Y95.503 E19.76097
G1 X36.353 Y94.88 E19.77104
G1 X36.697 Y94.294 E19.7811
G1 X37.107 Y93.752 E19.79117
G1 X37.577 Y93.262 E19.80123
G1 X38.102 Y92.831 E19.81129
G1 X38.674 Y92.464 E19.82136
G1 X39.285 Y92.167 E19.83142
G1 X39.927 Y91.943 E19.8415
G1 X40.59 Y91.797 E19.85155
G1 X41.5 Y91.725 E19.86507
G1 X62.52 Y91.725 E20.17645
G1 X63.198 Y91.765 E20.18651
G1 X63.867 Y91.884 E20.19658
G1 X64.459 Y92.06 E20.20573
G1 X71.83 Y94.688 E20.32165
G1 X79.095 Y96.203 E20.43158
G1 X86.692 Y96.725 E20.54438
G1 X146.308 Y96.725 E21.42749
G1 X153.905 Y96.203 E21.54029
G1 X161.17 Y94.688 E21.65023
G1 X168.541 Y92.06 E21.76615
G1 X169.193 Y91.87 E21.77621
G1 X169.863 Y91.758 E21.78627
G1 X170.48 Y91.725 E21.79543
G1 X191.5 Y91.725 E22.1068
G1 X192.178 Y91.765 E22.11686
G1 X192.847 Y91.884 E22.12693
G1 X193.497 Y92.081 E22.13699
G1 X194.12 Y92.353 E22.14706
G1 X194.706 Y92.697 E22.15712
G1 X195.248 Y93.107 E22.16719
G1 X195.738 Y93.577 E22.17725
G1 X196.169 Y94.102 E22.18731
G1 X196.536 Y94.674 E22.19738
G1 X196.833 Y95.285 E22.20744
G1 X197.057 Y95.927 E22.21751
G1 X197.203 Y96.59 E22.22757
G1 X197.275 Y97.5 E22.24109
G1 X197.275 Y117.5 E22.53736
G1 X197.235 Y118.178 E22.54742
G1 X197.116 Y118.847 E22.55749
G1 X196.919 Y119.497 E22.56755
G1 X196.647 Y120.12 E22.57762
G1 X196.303 Y120.706 E22.58768
G1 X195.893 Y121.248 E22.59775
G1 X195.423 Y121.738 E22.60781
G1 X194.898 Y122.169 E22.61787
G1 X194.326 Y122.536 E22.62794
G1 X193.715 Y122.833 E22.638
G1 X193.073 Y123.057 E22.64807
M204 S625
M205 X6
G0 F5454.5 X192.762 Y122.776
M204 S500
M205 X5
G1 F1200 X192.114 Y122.89 E22.65782
G1 X191.5 Y122.925 E22.66693
G1 X170.48 Y122.925 E22.97831
G1 X169.823 Y122.885 E22.98806
G1 X169.175 Y122.766 E22.99782
G1 X168.658 Y122.61 E23.00582
G1 X161.271 Y119.977 E23.12198
G1 X153.949 Y118.449 E23.23278
G1 X146.317 Y117.925 E23.34611
G1 X86.683 Y117.925 E24.22948
G1 X79.051 Y118.449 E24.3428
G1 X71.729 Y119.977 E24.4536
G1 X64.342 Y122.61 E24.56977
G1 X63.709 Y122.793 E24.57953
G1 X63.059 Y122.898 E24.58929
G1 X62.52 Y122.925 E24.59728
G1 X41.5 Y122.925 E24.90866
G1 X40.843 Y122.885 E24.91841
G1 X40.195 Y122.766 E24.92817
G1 X39.567 Y122.569 E24.93792
G1 X38.967 Y122.297 E24.94768
G1 X38.404 Y121.955 E24.95743
G1 X37.887 Y121.547 E24.96719
G1 X37.424 Y121.08 E24.97693
G1 X37.02 Y120.559 E24.9867
G1 X36.682 Y119.994 E24.99645
G1 X36.416 Y119.392 E25.0062
G1 X36.224 Y118.762 E25.01596
G1 X36.11 Y118.114 E25.0257
G1 X36.075 Y117.5 E25.03481
G1 X36.075 Y97.5 E25.33108
G1 X36.115 Y96.843 E25.34083
G1 X36.234 Y96.195 E25.35059
G1 X36.431 Y95.567 E25.36034
G1 X36.703 Y94.967 E25.3701
G1 X37.045 Y94.404 E25.37986
G1 X37.453 Y93.887 E25.38961
G1 X37.92 Y93.424 E25.39935
G1 X38.441 Y93.02 E25.40912
G1 X39.006 Y92.682 E25.41887
G1 X39.608 Y92.416 E25.42862
G1 X40.238 Y92.224 E25.43838
G1 X40.886 Y92.11 E25.44812
G1 X41.5 Y92.075 E25.45723
G1 X62.52 Y92.075 E25.76861
G1 X63.177 Y92.115 E25.77836
G1 X63.825 Y92.234 E25.78812
G1 X64.342 Y92.39 E25.79612
G1 X71.729 Y95.023 E25.91229
G1 X79.051 Y96.551 E26.02309
G1 X86.683 Y97.075 E26.13641
G1 X146.317 Y97.075 E27.01979
G1 X153.949 Y96.551 E27.13311
G1 X161.271 Y95.023 E27.24391
G1 X168.658 Y92.39 E27.36008
G1 X169.291 Y92.207 E27.36984
G1 X169.941 Y92.102 E27.37959
G1 X170.48 Y92.075 E27.38759
G1 X191.5 Y92.075 E27.69896
G1 X192.157 Y92.115 E27.70871
G1 X192.805 Y92.234 E27.71847
G1 X193.433 Y92.431 E27.72822
G1 X194.033 Y92.703 E27.73798
G1 X194.596 Y93.045 E27.74774
G1 X195.113 Y93.453 E27.75749
G1 X195.576 Y93.92 E27.76724
G1 X195.98 Y94.441 E27.777
G1 X196.318 Y95.006 E27.78675
G1 X196.584 Y95.608 E27.7965
G1 X196.776 Y96.238 E27.80626
G1 X196.89 Y96.886 E27.81601
G1 X196.925 Y97.5 E27.82512
G1 X196.925 Y117.5 E28.12138
G1 X196.885 Y118.157 E28.13113
G1 X196.766 Y118.805 E28.14089
G1 X196.569 Y119.433 E28.15064
G1 X196.297 Y120.033 E28.1604
G1 X195.955 Y120.596 E28.17016
G1 X195.547 Y121.113 E28.17992
G1 X195.08 Y121.576 E28.18966
G1 X194.559 Y121.98 E28.19942
G1 X193.994 Y122.318 E28.20918
G1 X193.392 Y122.584 E28.21893
G1 X192.762 Y122.776 E28.22868
M204 S625
M205 X6
G0 F5454.5 X192.456 Y122.484
M204 S500
M205 X5
G1 F1200 X191.824 Y122.565 E28.23812
G1 X191.5 Y122.575 E28.24292
G1 X170.48 Y122.575 E28.5543
G1 X169.844 Y122.535 E28.56374
G1 X169.219 Y122.416 E28.57316
G1 X168.776 Y122.28 E28.58003
G1 X161.366 Y119.638 E28.69656
G1 X154.001 Y118.102 E28.80801
G1 X146.327 Y117.575 E28.92195
G1 X86.673 Y117.575 E29.80563
G1 X78.999 Y118.102 E29.91957
G1 X71.634 Y119.638 E30.03102
G1 X64.224 Y122.28 E30.14756
G1 X63.612 Y122.456 E30.15699
G1 X62.983 Y122.554 E30.16642
G1 X62.52 Y122.575 E30.17328
G1 X41.5 Y122.575 E30.48466
G1 X40.864 Y122.535 E30.4941
G1 X40.239 Y122.416 E30.50352
G1 X39.633 Y122.219 E30.51296
G1 X39.057 Y121.948 E30.52239
G1 X38.519 Y121.607 E30.53183
G1 X38.028 Y121.201 E30.54127
G1 X37.592 Y120.737 E30.5507
G1 X37.217 Y120.222 E30.56014
G1 X36.91 Y119.665 E30.56956
G1 X36.675 Y119.073 E30.57899
G1 X36.516 Y118.456 E30.58843
G1 X36.435 Y117.824 E30.59787
G1 X36.425 Y117.5 E30.60267
G1 X36.425 Y97.5 E30.89894
G1 X36.465 Y96.864 E30.90838
G1 X36.584 Y96.239 E30.9178
G1 X36.781 Y95.633 E30.92724
G1 X37.052 Y95.057 E30.93667
G1 X37.393 Y94.519 E30.94611
G1 X37.799 Y94.028 E30.95554
G1 X38.263 Y93.592 E30.96498
G1 X38.778 Y93.217 E30.97441
G1 X39.335 Y92.91 E30.98383
G1 X39.927 Y92.675 E30.99327
G1 X40.544 Y92.516 E31.00271
G1 X41.176 Y92.435 E31.01215
G1 X41.5 Y92.425 E31.01695
G1 X62.52 Y92.425 E31.32832
G1 X63.156 Y92.465 E31.33776
G1 X63.781 Y92.584 E31.34719
G1 X64.224 Y92.72 E31.35405
G1 X71.634 Y95.362 E31.47059
G1 X78.999 Y96.898 E31.58204
G1 X86.673 Y97.425 E31.69598
G1 X146.327 Y97.425 E32.57965
G1 X154.001 Y96.898 E32.6936
G1 X161.366 Y95.362 E32.80505
