;START_OF_HEADER
;HEADER_VERSION:0.1
;FLAVOR:Griffin
;GENERATOR.NAME:Cura_SteamEngine
;GENERATOR.VERSION:2.6.2
;GENERATOR.BUILD_DATE:2017-07-06
;TARGET_MACHINE.NAME:Ultimaker 3
;EXTRUDER_TRAIN.0.INITIAL_TEMPERATURE:235
;EXTRUDER_TRAIN.0.MATERIAL.VOLUME_USED:1428
;EXTRUDER_TRAIN.0.MATERIAL.GUID:60636bb4-518f-42e7-8237-fe77b194ebe0
;EXTRUDER_TRAIN.0.NOZZLE.DIAMETER:0.4
;BUILD_PLATE.INITIAL_TEMPERATURE:80
;PRINT.TIME:755
;PRINT.SIZE.MIN.X:9
;PRINT.SIZE.MIN.Y:6
;PRINT.SIZE.MIN.Z:0.27
;PRINT.SIZE.MAX.X:139.825
;PRINT.SIZE.MAX.Y:117.325
;PRINT.SIZE.MAX.Z:3.97
;END_OF_HEADER
;Generated with Cura_SteamEngine 2.6.2

T0
G92 E0

M109 S235
G0 F15000 X9 Y6 Z2
G280
G1 F1500 E-6.5
;LAYER_COUNT:38
;LAYER:0
M107
M204 S625
M205 X6
G0 F5454.5 X137.421 Y115.7 Z0.27
M204 S500
M205 X5
;TYPE:SKIRT
G1 F1500 E0
G1 F1200 X136.833 Y116.147 E0.01094
G1 X136.2 Y116.528 E0.02189
G1 X135.53 Y116.839 E0.03283
G1 X134.83 Y117.075 E0.04377
G1 X134.109 Y117.234 E0.05471
G1 X133.374 Y117.315 E0.06566
G1 X133 Y117.325 E0.0712
G1 X100 Y117.325 E0.56004
G1 X99.262 Y117.285 E0.57099
G1 X98.534 Y117.166 E0.58192
G1 X97.822 Y116.968 E0.59287
G1 X97.136 Y116.695 E0.6038
G1 X96.483 Y116.349 E0.61475
G1 X95.871 Y115.935 E0.62569
G1 X95.308 Y115.457 E0.63664
G1 X94.8 Y114.921 E0.64757
G1 X94.353 Y114.333 E0.65852
G1 X93.972 Y113.7 E0.66946
G1 X93.661 Y113.03 E0.6804
G1 X93.425 Y112.33 E0.69135
G1 X93.266 Y111.609 E0.70228
G1 X93.185 Y110.874 E0.71324
G1 X93.175 Y110.5 E0.71878
G1 X93.175 Y104.5 E0.80766
G1 X93.215 Y103.762 E0.81861
G1 X93.334 Y103.034 E0.82953
G1 X93.532 Y102.322 E0.84048
G1 X93.805 Y101.636 E0.85142
G1 X94.151 Y100.983 E0.86236
G1 X94.565 Y100.371 E0.87331
G1 X95.043 Y99.808 E0.88425
G1 X95.579 Y99.3 E0.89519
G1 X96.167 Y98.853 E0.90613
G1 X96.8 Y98.472 E0.91708
G1 X97.47 Y98.161 E0.92802
G1 X98.17 Y97.925 E0.93896
G1 X98.891 Y97.766 E0.9499
G1 X99.626 Y97.685 E0.96085
G1 X100 Y97.675 E0.96639
G1 X133 Y97.675 E1.45523
G1 X133.738 Y97.715 E1.46618
G1 X134.466 Y97.834 E1.47711
G1 X135.178 Y98.032 E1.48806
G1 X135.864 Y98.305 E1.49899
G1 X136.517 Y98.651 E1.50994
G1 X137.129 Y99.065 E1.52088
G1 X137.692 Y99.543 E1.53182
G1 X138.2 Y100.079 E1.54276
G1 X138.647 Y100.667 E1.55371
G1 X139.028 Y101.3 E1.56465
G1 X139.339 Y101.97 E1.57559
G1 X139.575 Y102.67 E1.58653
G1 X139.734 Y103.391 E1.59747
G1 X139.815 Y104.126 E1.60843
G1 X139.825 Y104.5 E1.61397
G1 X139.825 Y110.5 E1.70285
G1 X139.785 Y111.238 E1.7138
G1 X139.666 Y111.966 E1.72472
G1 X139.468 Y112.678 E1.73567
G1 X139.195 Y113.364 E1.74661
G1 X138.849 Y114.017 E1.75755
G1 X138.435 Y114.629 E1.7685
G1 X137.957 Y115.192 E1.77944
G1 X137.421 Y115.7 E1.79038
M204 S625
M205 X6
G0 F5454.5 X137.079 Y115.529
M204 S500
M205 X5
G1 F1200 X136.496 Y115.95 E1.80103
G1 X135.869 Y116.304 E1.8117
G1 X135.208 Y116.587 E1.82235
G1 X134.519 Y116.794 E1.83301
G1 X133.811 Y116.924 E1.84367
G1 X133 Y116.975 E1.85571
G1 X100 Y116.975 E2.34455
G1 X99.282 Y116.935 E2.3552
G1 X98.572 Y116.816 E2.36586
G1 X97.88 Y116.618 E2.37652
G1 X97.215 Y116.345 E2.38717
G1 X96.583 Y116 E2.39784
G1 X95.994 Y115.587 E2.4085
G1 X95.455 Y115.111 E2.41915
G1 X94.971 Y114.579 E2.4298
G1 X94.55 Y113.996 E2.44045
G1 X94.196 Y113.369 E2.45112
G1 X93.913 Y112.708 E2.46177
G1 X93.706 Y112.019 E2.47243
G1 X93.576 Y111.311 E2.48309
G1 X93.525 Y110.5 E2.49513
G1 X93.525 Y104.5 E2.58401
G1 X93.565 Y103.782 E2.59466
G1 X93.684 Y103.072 E2.60533
G1 X93.882 Y102.38 E2.61599
G1 X94.155 Y101.715 E2.62664
G1 X94.5 Y101.083 E2.6373
G1 X94.913 Y100.494 E2.64796
G1 X95.389 Y99.955 E2.65861
G1 X95.921 Y99.471 E2.66927
G1 X96.504 Y99.05 E2.67992
G1 X97.131 Y98.696 E2.69058
G1 X97.792 Y98.413 E2.70124
G1 X98.481 Y98.206 E2.71189
G1 X99.189 Y98.076 E2.72256
G1 X100 Y98.025 E2.73459
G1 X133 Y98.025 E3.22343
G1 X133.718 Y98.065 E3.23408
G1 X134.428 Y98.184 E3.24475
G1 X135.12 Y98.382 E3.25541
G1 X135.785 Y98.655 E3.26606
G1 X136.417 Y99 E3.27673
G1 X137.006 Y99.413 E3.28738
G1 X137.545 Y99.889 E3.29803
G1 X138.029 Y100.421 E3.30869
G1 X138.45 Y101.004 E3.31934
G1 X138.804 Y101.631 E3.33001
G1 X139.087 Y102.292 E3.34066
G1 X139.294 Y102.981 E3.35131
G1 X139.424 Y103.689 E3.36198
G1 X139.475 Y104.5 E3.37402
G1 X139.475 Y110.5 E3.4629
G1 X139.435 Y111.218 E3.47355
G1 X139.316 Y111.928 E3.48421
G1 X139.118 Y112.62 E3.49487
G1 X138.845 Y113.285 E3.50552
G1 X138.5 Y113.917 E3.51619
G1 X138.087 Y114.506 E3.52684
G1 X137.611 Y115.045 E3.5375
G1 X137.079 Y115.529 E3.54815
M204 S625
M205 X6
G0 F5454.5 X136.738 Y115.352
M204 S500
M205 X5
G1 F1200 X136.16 Y115.747 E3.55852
G1 X135.541 Y116.073 E3.56889
G1 X134.889 Y116.327 E3.57925
G1 X134.212 Y116.504 E3.58962
G1 X133.519 Y116.603 E3.59999
G1 X133 Y116.625 E3.60768
G1 X100 Y116.625 E4.09652
G1 X99.301 Y116.585 E4.10689
G1 X98.612 Y116.466 E4.11725
G1 X97.941 Y116.268 E4.12761
G1 X97.296 Y115.996 E4.13798
G1 X96.687 Y115.652 E4.14834
G1 X96.121 Y115.24 E4.15871
G1 X95.606 Y114.767 E4.16907
G1 X95.148 Y114.238 E4.17944
G1 X94.753 Y113.66 E4.18981
G1 X94.427 Y113.041 E4.20017
G1 X94.173 Y112.389 E4.21054
G1 X93.996 Y111.712 E4.2209
G1 X93.897 Y111.019 E4.23127
G1 X93.875 Y110.5 E4.23897
G1 X93.875 Y104.5 E4.32785
G1 X93.915 Y103.801 E4.33822
G1 X94.034 Y103.112 E4.34858
G1 X94.232 Y102.441 E4.35894
G1 X94.504 Y101.796 E4.36931
G1 X94.848 Y101.187 E4.37967
G1 X95.26 Y100.621 E4.39004
G1 X95.733 Y100.106 E4.4004
G1 X96.262 Y99.648 E4.41076
G1 X96.84 Y99.253 E4.42113
G1 X97.459 Y98.927 E4.4315
G1 X98.111 Y98.673 E4.44186
G1 X98.788 Y98.496 E4.45223
G1 X99.481 Y98.397 E4.4626
G1 X100 Y98.375 E4.47029
G1 X133 Y98.375 E4.95913
G1 X133.699 Y98.415 E4.9695
G1 X134.388 Y98.534 E4.97986
G1 X135.059 Y98.732 E4.99022
G1 X135.704 Y99.004 E5.00059
G1 X136.313 Y99.348 E5.01095
G1 X136.879 Y99.76 E5.02133
G1 X137.394 Y100.233 E5.03168
G1 X137.852 Y100.762 E5.04205
G1 X138.247 Y101.34 E5.05242
G1 X138.573 Y101.959 E5.06278
G1 X138.827 Y102.611 E5.07315
G1 X139.004 Y103.288 E5.08351
G1 X139.103 Y103.981 E5.09388
G1 X139.125 Y104.5 E5.10158
G1 X139.125 Y110.5 E5.19046
G1 X139.085 Y111.199 E5.20083
G1 X138.966 Y111.888 E5.21119
G1 X138.768 Y112.559 E5.22155
G1 X138.496 Y113.204 E5.23192
G1 X138.152 Y113.813 E5.24228
G1 X137.74 Y114.379 E5.25265
G1 X137.267 Y114.894 E5.26301
G1 X136.738 Y115.352 E5.27337
M204 S625
M205 X6
G0 F5454.5 X136.398 Y115.169
M204 S500
M205 X5
G1 F1200 X135.826 Y115.536 E5.28344
G1 X135.215 Y115.833 E5.29351
G1 X134.573 Y116.057 E5.30358
G1 X133.91 Y116.203 E5.31363
G1 X133 Y116.275 E5.32716
G1 X100 Y116.275 E5.816
G1 X99.322 Y116.235 E5.82606
G1 X98.653 Y116.116 E5.83612
G1 X98.003 Y115.919 E5.84618
G1 X97.38 Y115.647 E5.85625
G1 X96.794 Y115.303 E5.86632
G1 X96.252 Y114.893 E5.87639
G1 X95.762 Y114.423 E5.88644
G1 X95.331 Y113.898 E5.89651
G1 X94.964 Y113.326 E5.90657
G1 X94.667 Y112.715 E5.91664
G1 X94.443 Y112.073 E5.92671
G1 X94.297 Y111.41 E5.93677
G1 X94.225 Y110.5 E5.95029
G1 X94.225 Y104.5 E6.03917
G1 X94.265 Y103.822 E6.04923
G1 X94.384 Y103.153 E6.0593
G1 X94.581 Y102.503 E6.06936
G1 X94.853 Y101.88 E6.07943
G1 X95.197 Y101.294 E6.08949
G1 X95.607 Y100.752 E6.09956
G1 X96.077 Y100.262 E6.10962
G1 X96.602 Y99.831 E6.11968
G1 X97.174 Y99.464 E6.12975
G1 X97.785 Y99.167 E6.13981
G1 X98.427 Y98.943 E6.14988
G1 X99.09 Y98.797 E6.15994
G1 X100 Y98.725 E6.17346
G1 X133 Y98.725 E6.6623
G1 X133.678 Y98.765 E6.67236
G1 X134.347 Y98.884 E6.68243
G1 X134.997 Y99.081 E6.69249
G1 X135.62 Y99.353 E6.70256
G1 X136.206 Y99.697 E6.71262
G1 X136.748 Y100.107 E6.72269
G1 X137.238 Y100.577 E6.73275
G1 X137.669 Y101.102 E6.74281
G1 X138.036 Y101.674 E6.75288
G1 X138.333 Y102.285 E6.76294
G1 X138.557 Y102.927 E6.77301
G1 X138.703 Y103.59 E6.78307
G1 X138.775 Y104.5 E6.79659
G1 X138.775 Y110.5 E6.88547
G1 X138.735 Y111.178 E6.89553
G1 X138.616 Y111.847 E6.9056
G1 X138.419 Y112.497 E6.91566
G1 X138.147 Y113.12 E6.92573
G1 X137.803 Y113.706 E6.9358
G1 X137.393 Y114.248 E6.94586
G1 X136.923 Y114.738 E6.95592
G1 X136.398 Y115.169 E6.96598
M204 S625
M205 X6
G0 F5454.5 X136.059 Y114.98
M204 S500
M205 X5
G1 F1200 X135.494 Y115.318 E6.97574
G1 X134.892 Y115.584 E6.98549
G1 X134.262 Y115.776 E6.99524
G1 X133.614 Y115.89 E7.00499
G1 X133 Y115.925 E7.0141
G1 X100 Y115.925 E7.50294
G1 X99.343 Y115.885 E7.51269
G1 X98.695 Y115.766 E7.52245
G1 X98.067 Y115.569 E7.5322
G1 X97.467 Y115.297 E7.54196
G1 X96.904 Y114.955 E7.55171
G1 X96.387 Y114.547 E7.56147
G1 X95.924 Y114.08 E7.57121
G1 X95.52 Y113.559 E7.58098
G1 X95.182 Y112.994 E7.59073
G1 X94.916 Y112.392 E7.60048
G1 X94.724 Y111.762 E7.61024
G1 X94.61 Y111.114 E7.61998
G1 X94.575 Y110.5 E7.62909
G1 X94.575 Y104.5 E7.71797
G1 X94.615 Y103.843 E7.72772
G1 X94.734 Y103.195 E7.73748
G1 X94.931 Y102.567 E7.74723
G1 X95.203 Y101.967 E7.75699
G1 X95.545 Y101.404 E7.76675
G1 X95.953 Y100.887 E7.7765
G1 X96.42 Y100.424 E7.78625
G1 X96.941 Y100.02 E7.79601
G1 X97.506 Y99.682 E7.80577
G1 X98.108 Y99.416 E7.81551
G1 X98.738 Y99.224 E7.82527
G1 X99.386 Y99.11 E7.83502
G1 X100 Y99.075 E7.84413
G1 X133 Y99.075 E8.33297
G1 X133.657 Y99.115 E8.34272
G1 X134.305 Y99.234 E8.35248
G1 X134.933 Y99.431 E8.36223
G1 X135.533 Y99.703 E8.37198
G1 X136.096 Y100.045 E8.38174
G1 X136.613 Y100.453 E8.3915
G1 X137.076 Y100.92 E8.40124
G1 X137.48 Y101.441 E8.41101
G1 X137.818 Y102.006 E8.42076
G1 X138.084 Y102.608 E8.43051
G1 X138.276 Y103.238 E8.44027
G1 X138.39 Y103.886 E8.45001
G1 X138.425 Y104.5 E8.45912
G1 X138.425 Y110.5 E8.548
G1 X138.385 Y111.157 E8.55775
G1 X138.266 Y111.805 E8.56751
G1 X138.069 Y112.433 E8.57726
G1 X137.797 Y113.033 E8.58702
G1 X137.455 Y113.596 E8.59678
G1 X137.047 Y114.113 E8.60653
G1 X136.58 Y114.576 E8.61628
G1 X136.059 Y114.98 E8.62604
M204 S625
M205 X6
G0 F5454.5 X135.722 Y114.783
M204 S500
M205 X5
G1 F1200 X135.165 Y115.09 E8.63546
G1 X134.573 Y115.325 E8.6449
G1 X133.956 Y115.484 E8.65434
G1 X133.324 Y115.565 E8.66377
G1 X133 Y115.575 E8.66858
G1 X100 Y115.575 E9.15742
G1 X99.364 Y115.535 E9.16686
G1 X98.739 Y115.416 E9.17628
G1 X98.133 Y115.219 E9.18572
G1 X97.557 Y114.948 E9.19515
G1 X97.019 Y114.607 E9.20459
G1 X96.528 Y114.201 E9.21402
G1 X96.092 Y113.737 E9.22345
G1 X95.717 Y113.222 E9.23289
G1 X95.41 Y112.665 E9.24231
G1 X95.175 Y112.073 E9.25175
G1 X95.016 Y111.456 E9.26119
G1 X94.935 Y110.824 E9.27063
G1 X94.925 Y110.5 E9.27543
G1 X94.925 Y104.5 E9.36431
G1 X94.965 Y103.864 E9.37375
G1 X95.084 Y103.239 E9.38317
G1 X95.281 Y102.633 E9.39261
G1 X95.552 Y102.057 E9.40204
G1 X95.893 Y101.519 E9.41148
G1 X96.299 Y101.028 E9.42091
G1 X96.763 Y100.592 E9.43035
G1 X97.278 Y100.217 E9.43978
G1 X97.835 Y99.91 E9.4492
G1 X98.427 Y99.675 E9.45864
G1 X99.044 Y99.516 E9.46808
G1 X99.676 Y99.435 E9.47752
G1 X100 Y99.425 E9.48232
G1 X133 Y99.425 E9.97116
G1 X133.636 Y99.465 E9.9806
G1 X134.261 Y99.584 E9.99002
G1 X134.867 Y99.781 E9.99946
G1 X135.443 Y100.052 E10.00889
G1 X135.981 Y100.393 E10.01833
G1 X136.472 Y100.799 E10.02776
G1 X136.908 Y101.263 E10.0372
G1 X137.283 Y101.778 E10.04663
G1 X137.59 Y102.335 E10.05605
G1 X137.825 Y102.927 E10.06549
G1 X137.984 Y103.544 E10.07493
G1 X138.065 Y104.176 E10.08437
G1 X138.075 Y104.5 E10.08917
G1 X138.075 Y110.5 E10.17805
G1 X138.035 Y111.136 E10.18749
G1 X137.916 Y111.761 E10.19691
G1 X137.719 Y112.367 E10.20635
G1 X137.448 Y112.943 E10.21578
G1 X137.107 Y113.481 E10.22522
G1 X136.701 Y113.972 E10.23465
G1 X136.237 Y114.408 E10.24409
G1 X135.722 Y114.783 E10.25352
M204 S625
M205 X6
G0 F5454.5 X135.387 Y114.578
M204 S500
M205 X5
G1 F1200 X134.838 Y114.853 E10.26262
G1 X134.257 Y115.055 E10.27173
G1 X133.656 Y115.179 E10.28082
G1 X133 Y115.225 E10.29056
G1 X100 Y115.225 E10.7794
G1 X99.387 Y115.185 E10.7885
G1 X98.784 Y115.066 E10.79761
G1 X98.202 Y114.869 E10.80671
G1 X97.65 Y114.599 E10.81581
G1 X97.138 Y114.259 E10.82492
G1 X96.674 Y113.856 E10.83402
G1 X96.267 Y113.396 E10.84312
G1 X95.922 Y112.887 E10.85223
G1 X95.647 Y112.338 E10.86132
G1 X95.445 Y111.757 E10.87043
G1 X95.321 Y111.156 E10.87952
G1 X95.275 Y110.5 E10.88927
G1 X95.275 Y104.5 E10.97815
G1 X95.315 Y103.887 E10.98725
G1 X95.434 Y103.284 E10.99635
G1 X95.631 Y102.702 E11.00545
G1 X95.901 Y102.15 E11.01455
G1 X96.241 Y101.638 E11.02366
G1 X96.644 Y101.174 E11.03276
G1 X97.104 Y100.767 E11.04186
G1 X97.613 Y100.422 E11.05097
G1 X98.162 Y100.147 E11.06007
G1 X98.743 Y99.945 E11.06918
G1 X99.344 Y99.821 E11.07827
G1 X100 Y99.775 E11.08801
G1 X133 Y99.775 E11.57685
G1 X133.613 Y99.815 E11.58595
G1 X134.216 Y99.934 E11.59505
G1 X134.798 Y100.131 E11.60416
G1 X135.35 Y100.401 E11.61326
G1 X135.862 Y100.741 E11.62236
G1 X136.326 Y101.144 E11.63147
G1 X136.733 Y101.604 E11.64056
G1 X137.078 Y102.113 E11.64967
G1 X137.353 Y102.662 E11.65877
G1 X137.555 Y103.243 E11.66788
G1 X137.679 Y103.844 E11.67697
G1 X137.725 Y104.5 E11.68671
G1 X137.725 Y110.5 E11.77559
G1 X137.685 Y111.113 E11.78469
G1 X137.566 Y111.716 E11.7938
G1 X137.369 Y112.298 E11.8029
G1 X137.099 Y112.85 E11.812
G1 X136.759 Y113.362 E11.82111
G1 X136.356 Y113.826 E11.83021
G1 X135.896 Y114.233 E11.83931
G1 X135.387 Y114.578 E11.84842
M204 S625
M205 X6
G0 F5454.5 X135.054 Y114.363
M204 S500
M205 X5
G1 F1200 X134.515 Y114.604 E11.85716
G1 X133.947 Y114.771 E11.86593
G1 X133.363 Y114.86 E11.87468
G1 X133 Y114.875 E11.88007
G1 X100 Y114.875 E12.36891
G1 X99.41 Y114.835 E12.37767
G1 X98.831 Y114.716 E12.38642
G1 X98.273 Y114.52 E12.39518
G1 X97.747 Y114.25 E12.40394
G1 X97.262 Y113.912 E12.4127
G1 X96.827 Y113.512 E12.42145
G1 X96.45 Y113.056 E12.43022
G1 X96.137 Y112.554 E12.43898
G1 X95.896 Y112.015 E12.44773
G1 X95.729 Y111.447 E12.4565
G1 X95.64 Y110.863 E12.46525
G1 X95.625 Y110.5 E12.47063
G1 X95.625 Y104.5 E12.55951
G1 X95.665 Y103.91 E12.56827
G1 X95.784 Y103.331 E12.57702
G1 X95.98 Y102.773 E12.58579
G1 X96.25 Y102.247 E12.59454
G1 X96.588 Y101.762 E12.6033
G1 X96.988 Y101.327 E12.61206
G1 X97.444 Y100.95 E12.62082
G1 X97.946 Y100.637 E12.62958
G1 X98.485 Y100.396 E12.63833
G1 X99.053 Y100.229 E12.6471
G1 X99.637 Y100.14 E12.65585
G1 X100 Y100.125 E12.66123
G1 X133 Y100.125 E13.15007
G1 X133.59 Y100.165 E13.15883
G1 X134.169 Y100.284 E13.16759
G1 X134.727 Y100.48 E13.17635
G1 X135.253 Y100.75 E13.18511
G1 X135.738 Y101.088 E13.19386
G1 X136.173 Y101.488 E13.20262
G1 X136.55 Y101.944 E13.21138
G1 X136.863 Y102.446 E13.22015
G1 X137.104 Y102.985 E13.22889
G1 X137.271 Y103.553 E13.23766
G1 X137.36 Y104.137 E13.24641
G1 X137.375 Y104.5 E13.25179
G1 X137.375 Y110.5 E13.34067
G1 X137.335 Y111.09 E13.34943
G1 X137.216 Y111.669 E13.35819
G1 X137.02 Y112.227 E13.36695
G1 X136.75 Y112.753 E13.37571
G1 X136.412 Y113.238 E13.38447
G1 X136.012 Y113.673 E13.39322
G1 X135.556 Y114.05 E13.40199
G1 X135.054 Y114.363 E13.41075
M204 S625
M205 X6
G0 F5454.5 X134.724 Y114.137
M204 S500
M205 X5
G1 F1200 X134.196 Y114.343 E13.41914
G1 X133.644 Y114.473 E13.42754
G1 X133 Y114.525 E13.43712
G1 X100 Y114.525 E13.92595
G1 X99.434 Y114.485 E13.93436
G1 X98.88 Y114.366 E13.94275
G1 X98.348 Y114.17 E13.95115
G1 X97.848 Y113.902 E13.95956
G1 X97.392 Y113.565 E13.96796
G1 X96.987 Y113.168 E13.97636
G1 X96.641 Y112.718 E13.98476
G1 X96.363 Y112.224 E13.99316
G1 X96.157 Y111.696 E14.00156
G1 X96.027 Y111.144 E14.00996
G1 X95.975 Y110.5 E14.01953
G1 X95.975 Y104.5 E14.10841
G1 X96.015 Y103.934 E14.11681
G1 X96.134 Y103.38 E14.12521
G1 X96.33 Y102.848 E14.13361
G1 X96.598 Y102.348 E14.14201
G1 X96.935 Y101.892 E14.15041
G1 X97.332 Y101.487 E14.15881
G1 X97.782 Y101.141 E14.16722
G1 X98.276 Y100.863 E14.17562
G1 X98.804 Y100.657 E14.18401
G1 X99.356 Y100.527 E14.19241
G1 X100 Y100.475 E14.20198
G1 X133 Y100.475 E14.69082
G1 X133.566 Y100.515 E14.69923
G1 X134.12 Y100.634 E14.70762
